icon-themes/elementary_svg/sfx2/res/actiontemplates017.svg

<svg height="24" width="24" xmlns="http://www.w3.org/2000/svg" xmlns:xlink="http://www.w3.org/1999/xlink"><linearGradient id="a" gradientTransform="matrix(.33333327 0 0 .32971018 -10.44063 6.352157)" gradientUnits="userSpaceOnUse" x1="62.988873" x2="62.988873" y1="11.645091" y2="15.385052"><stop offset="0" stop-color="#fff"/><stop offset="1" stop-color="#d8d8d8"/></linearGradient><linearGradient id="b" gradientTransform="matrix(.89189031 0 0 .94046961 10.14398 12.346537)" gradientUnits="userSpaceOnUse" x1="11.350123" x2="11.350123" y1=".666966" y2="8.172179"><stop offset="0" stop-color="#fff"/><stop offset=".0097359" stop-color="#fff" stop-opacity=".235294"/><stop offset=".99001008" stop-color="#fff" stop-opacity=".156863"/><stop offset="1" stop-color="#fff" stop-opacity=".392157"/></linearGradient><linearGradient id="c" gradientTransform="matrix(.50413225 0 0 .49333391 100.64025 -17.864023)" gradientUnits="userSpaceOnUse" x1="-162.6788" x2="-162.6788" y1="58.56691" y2="80.030975"><stop offset="0" stop-color="#efdfc4"/><stop offset="1" stop-color="#e7c591"/></linearGradient><path d="m2.1246235 4.1370482c-.1805394.2172796-.1246235.5314927-.1246235.8629518v2c0 .554.223 1 .5 1s.5-.446.5-1v-2h1.25c.4155 0 .75-.223.75-.5s-.3345-.5-.75-.5h-1.5c-.197693.0172294-.444837-.0802314-.6253765.1370482zm5.6253765-.1370482c-.4155 0-.75.223-.75.5s.3345.5.75.5h1.5c.4155 0 .75-.223.75-.5s-.3345-.5-.75-.5zm5 0c-.4155 0-.75.223-.75.5s.3345.5.75.5h1.5c.4155 0 .75-.223.75-.5s-.3345-.5-.75-.5zm4.75 0c-.277 0-.5.223-.5.5s.223.5.5.5h.5v1.25c0 .4155.223.75.5.75s.5-.3345.5-.75c-.003314-.5741535 0-1.2026168 0-1.75 0-.277-.223-.5-.5-.5zm1 5c-.277 0-.5 1-.5 1h1s-.223-1-.5-1zm-16 1c-.277 0-.5.3345-.5.75v1.5c0 .4155.223.75.5.75s.5-.3345.5-.75v-1.5c0-.4155-.223-.75-.5-.75zm16 4c-.277 0-.5.446-.5 1v2h-1.25c-.4155 0-.75.223-.75.5s.3345.5.75.5h1.5c.08107 0 .145728-.01553.21875-.03125.013559.002188.0174.03125.03125.03125.06925 0 .127641-.04328.1875-.09375.186084-.090816.3125-.24005.3125-.40625 0-.045012-.014672-.083565-.03125-.125.025234-.119719.03125-.2365.03125-.375v-2c0-.554-.223-1-.5-1zm-16 1c-.277 0-.5.3345-.5.75.00331.574154 0 1.202617 0 1.75 0 .277.223.5.5.5h1c.277 0 .5-.223.5-.5s-.223-.5-.5-.5h-.5v-1.25c0-.4155-.223-.75-.5-.75zm5.25 2c-.4155 0-.75.223-.75.5s.3345.5.75.5h.5c.4155 0 .75-.223.75-.5s-.3345-.5-.75-.5zm4 0c-.4155 0-.75.223-.75.5s.3345.5.75.5h1.5c.4155 0 .75-.223.75-.5s-.3345-.5-.75-.5z" fill="#fff" opacity=".3"/><path d="m2.1246235 3.1370482c-.1805394.2172796-.1246235.5314927-.1246235.8629518v2c0 .554.223 1 .5 1s.5-.446.5-1v-2h1.25c.4155 0 .75-.223.75-.5s-.3345-.5-.75-.5h-1.5c-.197693.0172294-.444837-.0802314-.6253765.1370482zm5.6253765-.1370482c-.4155 0-.75.223-.75.5s.3345.5.75.5h1.5c.4155 0 .75-.223.75-.5s-.3345-.5-.75-.5zm5 0c-.4155 0-.75.223-.75.5s.3345.5.75.5h1.5c.4155 0 .75-.223.75-.5s-.3345-.5-.75-.5zm4.75 0c-.277 0-.5.223-.5.5s.223.5.5.5h.5v1.25c0 .4155.223.75.5.75s.5-.3345.5-.75c-.003314-.5741535 0-1.2026168 0-1.75 0-.277-.223-.5-.5-.5zm1 5c-.277 0-.5 1-.5 1h1s-.223-1-.5-1zm-16 1c-.277 0-.5.3345-.5.75v1.5c0 .4155.223.75.5.75s.5-.3345.5-.75v-1.5c0-.4155-.223-.75-.5-.75zm0 5c-.277 0-.5.3345-.5.75.00331.574154 0 1.202617 0 1.75 0 .277.223.5.5.5h1c.277 0 .5-.223.5-.5s-.223-.5-.5-.5h-.5v-1.25c0-.4155-.223-.75-.5-.75zm5.25 2c-.4155 0-.75.223-.75.5s.3345.5.75.5h.5c.4155 0 .75-.223.75-.5s-.3345-.5-.75-.5z" opacity=".5"/><path d="m22.5 10.999667v-1.273334c0-.138499-.08818-.226333-.22668-.226333h-6.77332v-.742083c0-.1385-.08818-.257917-.22668-.257917h-6.5c-.1385 0-.27332.119417-.27332.257917v.742083h-.727c-.1385 0-.273.088167-.273.226667v1.273333" fill="none" opacity=".5" stroke="#7e8087" stroke-linecap="square"/><path d="m9 9v1h-1v4h14v-4h-7v-1z" fill="url(#a)"/><path d="m7.5 11.5h15v10h-15z" fill="url(#c)" stroke="#987124" stroke-linejoin="round" stroke-opacity=".498039"/><path d="m8.5 12.5h13v8h-13z" fill="none" opacity=".5" stroke="url(#b)" stroke-linecap="round"/></svg>

<?xml version="1.0" encoding="UTF-8" standalone="no"?>
<svg
   xmlns:dc="http://purl.org/dc/elements/1.1/"
   xmlns:cc="http://creativecommons.org/ns#"
   xmlns:rdf="http://www.w3.org/1999/02/22-rdf-syntax-ns#"
   xmlns:svg="http://www.w3.org/2000/svg"
   xmlns="http://www.w3.org/2000/svg"
   xmlns:xlink="http://www.w3.org/1999/xlink"
   xmlns:sodipodi="http://sodipodi.sourceforge.net/DTD/sodipodi-0.dtd"
   xmlns:inkscape="http://www.inkscape.org/namespaces/inkscape"
   id="svg2"
   height="24"
   width="24"
   version="1.0"
   sodipodi:docname="actiontemplates017.svg"
   inkscape:version="0.92.3 (unknown)">
  <sodipodi:namedview
     pagecolor="#ffffff"
     bordercolor="#666666"
     borderopacity="1"
     objecttolerance="10"
     gridtolerance="10"
     guidetolerance="10"
     inkscape:pageopacity="0"
     inkscape:pageshadow="2"
     inkscape:window-width="1366"
     inkscape:window-height="706"
     id="namedview26"
     showgrid="false"
     inkscape:zoom="9.8333333"
     inkscape:cx="-1.7288136"
     inkscape:cy="11.186441"
     inkscape:window-x="0"
     inkscape:window-y="0"
     inkscape:window-maximized="1"
     inkscape:current-layer="svg2" />
  <defs
     id="defs4">
    <linearGradient
       id="linearGradient4346">
      <stop
         offset="0"
         style="stop-color:#ffffff;stop-opacity:1"
         id="stop4348" />
      <stop
         offset="1"
         style="stop-color:#d8d8d8;stop-opacity:1"
         id="stop4350" />
    </linearGradient>
    <linearGradient
       id="linearGradient3454-2-5-0-3-8">
      <stop
         offset="0"
         style="stop-color:#ffffff;stop-opacity:1"
         id="stop3456-4-9-38-1-9" />
      <stop
         offset="0.0097359"
         style="stop-color:#ffffff;stop-opacity:0.23529412"
         id="stop3458-39-80-3-5-6" />
      <stop
         offset="0.99001008"
         style="stop-color:#ffffff;stop-opacity:0.15686275"
         id="stop3460-7-0-2-4-4" />
      <stop
         offset="1"
         style="stop-color:#ffffff;stop-opacity:0.39215687"
         id="stop3462-0-9-8-7-8" />
    </linearGradient>
    <linearGradient
       x1="62.988873"
       y1="11.645091"
       x2="62.988873"
       y2="15.385052"
       id="linearGradient8858-0"
       xlink:href="#linearGradient4346"
       gradientUnits="userSpaceOnUse"
       gradientTransform="matrix(0.33333327,0,0,0.32971018,-10.44063,6.3521573)" />
    <linearGradient
       x1="-162.6788"
       y1="58.56691"
       x2="-162.6788"
       y2="80.030975"
       id="linearGradient5954"
       xlink:href="#linearGradient4632-0-6-4-4-4"
       gradientUnits="userSpaceOnUse"
       gradientTransform="matrix(0.50413225,0,0,0.49333391,93.640247,-25.864023)" />
    <linearGradient
       id="linearGradient4632-0-6-4-4-4">
      <stop
         id="stop4634-4-4-7-4"
         style="stop-color:#efdfc4;stop-opacity:1"
         offset="0" />
      <stop
         id="stop4636-3-1-5-9"
         style="stop-color:#e7c591;stop-opacity:1"
         offset="1" />
    </linearGradient>
    <linearGradient
       x1="11.350123"
       y1="0.66696572"
       x2="11.350123"
       y2="8.1721792"
       id="linearGradient10270-0-0"
       xlink:href="#linearGradient3454-2-5-0-3-8"
       gradientUnits="userSpaceOnUse"
       gradientTransform="matrix(0.89189031,0,0,0.94046961,10.14398,12.346537)" />
    <linearGradient
       y2="80.030975"
       x2="-162.6788"
       y1="58.56691"
       x1="-162.6788"
       gradientTransform="matrix(0.50413225,0,0,0.49333391,100.64025,-17.864023)"
       gradientUnits="userSpaceOnUse"
       id="linearGradient961"
       xlink:href="#linearGradient4632-0-6-4-4-4" />
  </defs>
  <metadata
     id="metadata7">
    <rdf:RDF>
      <cc:Work
         rdf:about="">
        <dc:format>image/svg+xml</dc:format>
        <dc:type
           rdf:resource="http://purl.org/dc/dcmitype/StillImage" />
        <dc:title></dc:title>
      </cc:Work>
    </rdf:RDF>
  </metadata>
  <path
     d="M 2.1246235,4.1370482 C 1.9440841,4.3543278 2,4.6685409 2,5 V 7 C 2,7.554 2.223,8 2.5,8 2.777,8 3,7.554 3,7 V 5 H 4.25 C 4.6655,5 5,4.777 5,4.5 5,4.223 4.6655,4 4.25,4 H 2.75 C 2.552307,4.0172294 2.305163,3.9197686 2.1246235,4.1370482 Z M 7.75,4 C 7.3345,4 7,4.223 7,4.5 7,4.777 7.3345,5 7.75,5 h 1.5 C 9.6655,5 10,4.777 10,4.5 10,4.223 9.6655,4 9.25,4 Z m 5,0 C 12.3345,4 12,4.223 12,4.5 12,4.777 12.3345,5 12.75,5 h 1.5 C 14.6655,5 15,4.777 15,4.5 15,4.223 14.6655,4 14.25,4 Z M 17.5,4 C 17.223,4 17,4.223 17,4.5 17,4.777 17.223,5 17.5,5 H 18 V 6.25 C 18,6.6655 18.223,7 18.5,7 18.777,7 19,6.6655 19,6.25 18.996686,5.6758465 19,5.0473832 19,4.5 19,4.223 18.777,4 18.5,4 Z m 1,5 C 18.223,9 18,10 18,10 h 1 c 0,0 -0.223,-1 -0.5,-1 z m -16,1 C 2.223,10 2,10.3345 2,10.75 v 1.5 C 2,12.6655 2.223,13 2.5,13 2.777,13 3,12.6655 3,12.25 v -1.5 C 3,10.3345 2.777,10 2.5,10 Z m 16,4 C 18.223,14 18,14.446 18,15 v 2 H 16.75 C 16.3345,17 16,17.223 16,17.5 c 0,0.277 0.3345,0.5 0.75,0.5 h 1.5 c 0.08107,0 0.145728,-0.01553 0.21875,-0.03125 C 18.482309,17.970938 18.48615,18 18.5,18 18.56925,18 18.627641,17.95672 18.6875,17.90625 18.873584,17.815434 19,17.6662 19,17.5 19,17.454988 18.985328,17.416435 18.96875,17.375 18.993984,17.255281 19,17.1385 19,17 v -2 c 0,-0.554 -0.223,-1 -0.5,-1 z m -16,1 C 2.223,15 2,15.3345 2,15.75 2.00331,16.324154 2,16.952617 2,17.5 2,17.777 2.223,18 2.5,18 h 1 C 3.777,18 4,17.777 4,17.5 4,17.223 3.777,17 3.5,17 H 3 V 15.75 C 3,15.3345 2.777,15 2.5,15 Z m 5.25,2 C 7.3345,17 7,17.223 7,17.5 7,17.777 7.3345,18 7.75,18 h 0.5 C 8.6655,18 9,17.777 9,17.5 9,17.223 8.6655,17 8.25,17 Z m 4,0 C 11.3345,17 11,17.223 11,17.5 c 0,0.277 0.3345,0.5 0.75,0.5 h 1.5 C 13.6655,18 14,17.777 14,17.5 14,17.223 13.6655,17 13.25,17 Z"
     id="path3841"
     style="opacity:0.3;fill:#ffffff;fill-opacity:1;stroke:none" />
  <path
     d="M 2.1246235,3.1370482 C 1.9440841,3.3543278 2,3.6685409 2,4 V 6 C 2,6.554 2.223,7 2.5,7 2.777,7 3,6.554 3,6 V 4 H 4.25 C 4.6655,4 5,3.777 5,3.5 5,3.223 4.6655,3 4.25,3 H 2.75 C 2.552307,3.0172294 2.305163,2.9197686 2.1246235,3.1370482 Z M 7.75,3 C 7.3345,3 7,3.223 7,3.5 7,3.777 7.3345,4 7.75,4 h 1.5 C 9.6655,4 10,3.777 10,3.5 10,3.223 9.6655,3 9.25,3 Z m 5,0 C 12.3345,3 12,3.223 12,3.5 12,3.777 12.3345,4 12.75,4 h 1.5 C 14.6655,4 15,3.777 15,3.5 15,3.223 14.6655,3 14.25,3 Z M 17.5,3 C 17.223,3 17,3.223 17,3.5 17,3.777 17.223,4 17.5,4 H 18 V 5.25 C 18,5.6655 18.223,6 18.5,6 18.777,6 19,5.6655 19,5.25 18.996686,4.6758465 19,4.0473832 19,3.5 19,3.223 18.777,3 18.5,3 Z m 1,5 C 18.223,8 18,9 18,9 h 1 C 19,9 18.777,8 18.5,8 Z M 2.5,9 C 2.223,9 2,9.3345 2,9.75 v 1.5 C 2,11.6655 2.223,12 2.5,12 2.777,12 3,11.6655 3,11.25 V 9.75 C 3,9.3345 2.777,9 2.5,9 Z m 0,5 C 2.223,14 2,14.3345 2,14.75 2.00331,15.324154 2,15.952617 2,16.5 2,16.777 2.223,17 2.5,17 h 1 C 3.777,17 4,16.777 4,16.5 4,16.223 3.777,16 3.5,16 H 3 V 14.75 C 3,14.3345 2.777,14 2.5,14 Z m 5.25,2 C 7.3345,16 7,16.223 7,16.5 7,16.777 7.3345,17 7.75,17 h 0.5 C 8.6655,17 9,16.777 9,16.5 9,16.223 8.6655,16 8.25,16 Z"
     id="rect4043"
     style="opacity:0.5;fill:#000000;fill-opacity:1;stroke:none" />
  <path
     style="color:#000000;display:inline;overflow:visible;visibility:visible;opacity:0.5;vector-effect:none;fill:none;fill-opacity:1;stroke:#7e8087;stroke-width:1;stroke-linecap:square;stroke-linejoin:miter;stroke-miterlimit:4;stroke-dasharray:none;stroke-dashoffset:0;stroke-opacity:1;marker:none;enable-background:accumulate"
     id="rect4170"
     d="M 22.5,10.999667 V 9.726333 C 22.5,9.587834 22.41182,9.5 22.27332,9.5 H 15.5 V 8.757917 C 15.5,8.619417 15.41182,8.5 15.27332,8.5 h -6.5 C 8.63482,8.5 8.5,8.619417 8.5,8.757917 V 9.5 H 7.773 C 7.6345,9.5 7.5,9.588167 7.5,9.726667 V 11" />
  <path
     style="color:#000000;display:inline;overflow:visible;visibility:visible;fill:url(#linearGradient8858-0);fill-opacity:1;fill-rule:nonzero;stroke:none;stroke-width:0.99992168;marker:none;enable-background:accumulate"
     id="rect4170-0"
     d="m 9,9 v 1 H 8 v 4 H 22 V 10 H 15 V 9 Z" />
  <path
     style="color:#000000;display:inline;overflow:visible;visibility:visible;opacity:1;vector-effect:none;fill:url(#linearGradient961);fill-opacity:1;stroke:#987124;stroke-width:1;stroke-linecap:butt;stroke-linejoin:round;stroke-miterlimit:4;stroke-dasharray:none;stroke-dashoffset:0;stroke-opacity:0.49803922;marker:none;enable-background:accumulate"
     id="rect3086-0"
     d="m 7.5,11.5 h 15 v 10 h -15 z" />
  <path
     style="color:#000000;display:inline;overflow:visible;visibility:visible;opacity:0.5;fill:none;stroke:url(#linearGradient10270-0-0);stroke-width:1;stroke-linecap:round;stroke-linejoin:miter;stroke-miterlimit:4;stroke-dasharray:none;stroke-dashoffset:0;stroke-opacity:1;marker:none;enable-background:accumulate"
     id="rect3086-9"
     d="m 8.5,12.5 h 13 v 8 h -13 z" />
</svg>
